src/16/actions/format-font-size-more.svg

<svg xmlns="http://www.w3.org/2000/svg" viewBox="0 0 16 16">
  <defs id="defs3051">
    <style type="text/css" id="current-color-scheme">
      .ColorScheme-Text {
        color:#5d656b;
      }
      </style>
  </defs>
 <path style="fill:currentColor;fill-opacity:1;stroke:none" 
       d="M 6.3828125 2 L 2 13 L 3.3574219 13 L 4.546875 10 L 7 10 L 9.5214844 10 L 10.710938 13 L 12.068359 13 L 7.6855469 2 L 7 2 L 6.3828125 2 z M 12.5 2 L 12.28125 2.1875 L 10 4.5 L 10 5.90625 L 12 3.90625 L 12 7 L 13 7 L 13 3.90625 L 15 5.90625 L 15 4.5 L 12.71875 2.1875 L 12.5 2 z M 7.0058594 3.328125 L 9.1269531 9 L 7 9 L 4.9414062 9 C 4.9401662 9.00746 7.0058594 3.328125 7.0058594 3.328125 z "
     class="ColorScheme-Text"
     />
</svg>

<svg xmlns="http://www.w3.org/2000/svg" viewBox="0 0 16 16"><path d="M6.383 2L2 13h1.357l1.19-3H9.52l1.19 3h1.357L7.686 2H6.383zM12.5 2l-.219.188L10 4.5v1.406l2-2V7h1V3.906l2 2V4.5l-2.281-2.313L12.5 2zM7.006 3.328L9.127 9H4.941c0 .007 2.065-5.672 2.065-5.672z" fill="currentColor" color="#5d656b"/></svg>
